icons/folder_type_certificate_opened.svg

<svg xmlns="http://www.w3.org/2000/svg" viewBox="0 0 32 32"><path d="M27.9 6h-9.7l-2 4H5v17h25V6Zm.1 18H7V12h21Zm.1-14h-7.8l1-2H28Z" style="fill:#836e35"/><path d="M25.9 14H.3l3.8 13h25.6l-3.8-13z" style="fill:#836e35"/><path d="M23.08 12.751A4.261 4.261 0 0 0 18.834 17v3.54h-2.123v9.207h12.743v-9.21h-2.123V17a4.26 4.26 0 0 0-4.251-4.249Zm0 1.417a2.823 2.823 0 0 1 2.833 2.811v3.562h-5.666V17a2.822 2.822 0 0 1 2.807-2.836h.005Z" style="fill:#af9347"/></svg>

<svg xmlns="http://www.w3.org/2000/svg" viewBox="0 0 32 32"><title>folder_type_certificate_opened</title><path d="M27.9,6H18.2l-2,4H5V27H30V6ZM28,24H7V12H28Zm.1-14H20.3l1-2H28Z" style="fill:#836e35"/><polygon points="25.9 14 0.3 14 4.1 27 29.7 27 25.9 14" style="fill:#836e35"/><path d="M23.08,12.751A4.261,4.261,0,0,0,18.834,17v3.54H16.711v9.207H29.454V20.537H27.331V17A4.26,4.26,0,0,0,23.08,12.751Zm0,1.417a2.823,2.823,0,0,1,2.833,2.811v3.562H20.247V17a2.822,2.822,0,0,1,2.807-2.836h.005Z" style="fill:#af9347"/></svg>
